icons/chevron-square-top.svg

<svg width="24" height="24" viewBox="0 0 24 24" fill="none" xmlns="http://www.w3.org/2000/svg">
<path fill-rule="evenodd" clip-rule="evenodd" d="M9 3.75C6.10602 3.75 3.75 6.02236 3.75 9V15C3.75 17.8858 6.11421 20.25 9 20.25H15C17.8858 20.25 20.25 17.8858 20.25 15V9C20.25 6.11421 17.8858 3.75 15 3.75H9ZM2.25 9C2.25 5.17764 5.29398 2.25 9 2.25H15C18.7142 2.25 21.75 5.28579 21.75 9V15C21.75 18.7142 18.7142 21.75 15 21.75H9C5.28579 21.75 2.25 18.7142 2.25 15V9Z" fill="black"/>
<path fill-rule="evenodd" clip-rule="evenodd" d="M12.1007 11.0258C12.1007 11.0258 12.1002 11.0261 12.0991 11.0267L12.1007 11.0258ZM12 11.1233L8.88031 14.2429C8.58741 14.5358 8.11254 14.5358 7.81965 14.2429C7.52675 13.95 7.52675 13.4752 7.81964 13.1823L11.0196 9.98227L11.0196 9.98227C11.2844 9.71747 11.6422 9.5376 12.0375 9.5376C12.4205 9.5376 12.7804 9.7099 13.0219 10.0239L16.1803 13.1823C16.4732 13.4752 16.4732 13.95 16.1803 14.2429C15.8874 14.5358 15.4125 14.5358 15.1196 14.2429L12 11.1233Z" fill="black"/>
</svg>

<svg xmlns="http://www.w3.org/2000/svg" fill="none" viewBox="0 0 24 24">
  <path fill="#000" fill-rule="evenodd" d="M9 3.75C6.106 3.75 3.75 6.022 3.75 9v6c0 2.886 2.364 5.25 5.25 5.25h6c2.886 0 5.25-2.364 5.25-5.25V9c0-2.886-2.364-5.25-5.25-5.25H9ZM2.25 9c0-3.822 3.044-6.75 6.75-6.75h6c3.714 0 6.75 3.036 6.75 6.75v6c0 3.714-3.036 6.75-6.75 6.75H9c-3.714 0-6.75-3.036-6.75-6.75V9Z" clip-rule="evenodd"/>
  <path fill="#000" fill-rule="evenodd" d="M12.1 11.026Zm-.1.097-3.12 3.12a.75.75 0 0 1-1.06-1.06l3.2-3.2a1.45 1.45 0 0 1 1.018-.445c.383 0 .742.172.984.486l3.158 3.158a.75.75 0 1 1-1.06 1.06L12 11.124Z" clip-rule="evenodd"/>
</svg>
